storage/app/icons/phosphoricons/thin/paint-roller-thin.svg

<svg xmlns="http://www.w3.org/2000/svg" fill="currentColor" viewBox="0 0 256 256"><path d="M232 92h-20V64a12 12 0 0 0-12-12H48a12 12 0 0 0-12 12v28H16a4 4 0 0 0 0 8h20v28a12 12 0 0 0 12 12h152a12 12 0 0 0 12-12v-28h20a4 4 0 0 1 4 4v50a4 4 0 0 1-2.9 3.84L132.7 186.5A12 12 0 0 0 124 198v34a4 4 0 0 0 8 0v-34a4 4 0 0 1 2.9-3.84l100.4-28.66A12 12 0 0 0 244 154v-50a12 12 0 0 0-12-12m-28 36a4 4 0 0 1-4 4H48a4 4 0 0 1-4-4V64a4 4 0 0 1 4-4h152a4 4 0 0 1 4 4Z"/></svg>

<svg xmlns="http://www.w3.org/2000/svg" viewBox="0 0 256 256" fill="currentColor"><path d="M232,92H212V64a12,12,0,0,0-12-12H48A12,12,0,0,0,36,64V92H16a4,4,0,0,0,0,8H36v28a12,12,0,0,0,12,12H200a12,12,0,0,0,12-12V100h20a4,4,0,0,1,4,4v50a4,4,0,0,1-2.9,3.84L132.7,186.5A12,12,0,0,0,124,198v34a4,4,0,0,0,8,0V198a4,4,0,0,1,2.9-3.84L235.3,165.5A12,12,0,0,0,244,154V104A12,12,0,0,0,232,92Zm-28,36a4,4,0,0,1-4,4H48a4,4,0,0,1-4-4V64a4,4,0,0,1,4-4H200a4,4,0,0,1,4,4Z"/></svg>
